X: 29133
T: Neptunalia's
R: jig
M: 6/8
K: Bdorian
|:"Bm"BBA FcF|dFe cBA|"A"AFE ~E3|~A3 AGA|
"Bm"BAF FcF|dFe cBA|"A/E"Bcd eBc|ded cBA:|
"F#m"f3 faf|c3 cBc|"D"~d3 ded|~A3 A2_B|
"G"B2=G cGd-|dcB BcA|"A"~c3 dAe-|edc d2e|
"Bm"~d3 dfa|c3 cBA|"F#m"B2 B2 fe|~A3 A2G|
"G"=G2D BGd-|d=GB dBG|"A"=GAE cAe-|eAc e2c|

